azure-docs/api_bing_video_search.svg

<?xml version="1.0" encoding="UTF-8"?>
<svg width="512px" height="512px" viewBox="0 0 512 512" version="1.1" xmlns="http://www.w3.org/2000/svg" xmlns:xlink="http://www.w3.org/1999/xlink">
    <!-- Generator: Sketch 46.2 (44496) - http://www.bohemiancoding.com/sketch -->
    <title>bingVideoSearch-wht-bluBG-512p</title>
    <desc>Created with Sketch.</desc>
    <defs></defs>
    <g id="PRODUCTION-ICONS" stroke="none" stroke-width="1" fill="none" fill-rule="evenodd">
        <g id="bingVideoSearch-wht-bluBG-512p">
            <g id="Bing-Video-Search-API">
                <rect id="Rectangle-3-Copy-27" fill="#0063B1" x="0" y="0" width="512" height="512"></rect>
                <path d="M369.777778,142.222222 L369.777778,369.777778 L239.297422,369.777778 C242.039467,362.626844 243.774578,354.992356 244.332089,347.022222 L347.022222,347.022222 L347.022222,164.977778 L164.977778,164.977778 L164.977778,261.688889 C157.064533,261.688889 149.441422,262.883556 142.222222,265.033956 L142.222222,142.222222 L369.777778,142.222222 Z M297.572124,256 L227.55328,301.511111 L227.55328,210.488889 L297.572124,256 Z" id="Combined-Shape" fill="#FFFFFF"></path>
                <path d="M131.449742,341.333333 C131.449742,322.668089 146.491164,307.592533 164.980053,307.592533 C183.468942,307.592533 198.504676,322.668089 198.504676,341.333333 C198.504676,360.004267 183.468942,375.079822 164.980053,375.079822 C146.491164,375.079822 131.449742,360.004267 131.449742,341.333333 M108.091164,341.333333 C108.091164,352.824889 111.521564,363.502933 117.38112,372.445867 L73.9578311,415.880533 L90.0516978,431.968711 L133.378276,388.636444 C142.41792,394.683733 153.278009,398.222222 164.980053,398.222222 C196.428231,398.222222 221.868942,372.724622 221.868942,341.333333 C221.868942,309.947733 196.428231,284.444444 164.980053,284.444444 C133.526187,284.444444 108.091164,309.947733 108.091164,341.333333" id="Fill-5" fill="#FFFFFF"></path>
            </g>
        </g>
    </g>
</svg>

<svg width="512" height="512" xmlns="http://www.w3.org/2000/svg"><g fill="none" fill-rule="evenodd"><path fill="#0063B1" d="M0 0h512v512H0z"/><path d="M369.778 142.222v227.556h-130.48a78.806 78.806 0 0 0 5.034-22.756h102.69V164.978H164.978v96.71c-7.913 0-15.537 1.196-22.756 3.346V142.222h227.556zM297.572 256l-70.019 45.511V210.49L297.573 256z" fill="#FFF"/><path d="M131.45 341.333c0-18.665 15.041-33.74 33.53-33.74s33.525 15.075 33.525 33.74c0 18.671-15.036 33.747-33.525 33.747-18.489 0-33.53-15.076-33.53-33.747m-23.359 0c0 11.492 3.43 22.17 9.29 31.113L73.958 415.88l16.094 16.088 43.326-43.333a56.63 56.63 0 0 0 31.602 9.586c31.448 0 56.889-25.497 56.889-56.889 0-31.385-25.44-56.889-56.889-56.889-31.454 0-56.889 25.504-56.889 56.89" fill="#FFF"/></g></svg>
